64x64/apps/AdobePhotoshop.svg

<svg xmlns="http://www.w3.org/2000/svg" width="64" height="64" version="1">
 <path style="opacity:0.2" d="m 4.0000004,56.200069 0,1.999971 c 0,1.549978 1.2495821,2.79996 2.80076,2.79996 L 57.20004,61 C 58.750017,61 60,59.750018 60,58.20004 l 0,-1.999971 c 0,1.549977 -1.249983,2.79996 -2.79996,2.79996 l -50.3992796,0 c -1.5503779,0 -2.79996,-1.249983 -2.79996,-2.79996 z"/>
 <rect style="fill:#3b478c" width="56" height="56" x="4" y="4" rx="2.8" ry="2.8"/>
 <path style="opacity:0.2" d="m 14.000057,19.113614 c 0,0 4.20194,-0.114994 7.661091,-0.114994 4.799931,0.001 10.337852,1.600977 10.337852,10.000857 0,8.399879 -5.538321,9.999857 -10.338452,9.971257 -1.062245,0.04632 -1.661236,0.05738 -1.661236,0.05738 l 0,7.971886 -5.999915,0 z m 5.999515,15.874373 c 0.610091,0.06176 0.608291,0.03204 1.512578,0.02074 3.011957,-0.036 4.487936,-3.325953 4.487936,-6.207912 0,-2.587963 -1.147984,-5.689918 -4.039942,-5.799917 -1.153984,-0.044 -1.960172,0 -1.960172,0 z"/>
 <path style="fill:#219fd1" d="m 14.000057,18.115628 c 0,0 4.20194,-0.114995 7.661091,-0.114995 4.799931,0 10.337852,1.599977 10.337852,9.999857 0,8.39988 -5.538321,9.999857 -10.338452,9.971258 -1.062245,0.04632 -1.661236,0.05738 -1.661236,0.05738 l 0,7.971886 -5.999915,0 z m 5.999515,15.874373 c 0.610091,0.06176 0.608291,0.03204 1.512578,0.02074 3.011957,-0.038 4.487936,-3.327952 4.487936,-6.209911 0,-2.587963 -1.147984,-5.689919 -4.039942,-5.799917 -1.153984,-0.044 -1.960172,0 -1.960172,0 z"/>
 <g style="opacity:0.2" transform="matrix(0.21419694,0,0,0.23307667,1.2675195,-0.70580261)">
  <path d="m 162.15,178.93 c 5.109,3.135 14.876,8.5808 23.094,8.5808 8.396,0 14.252,-4.7723 14.252,-9.3853 0,-4.619 -1.5608,-10.288 -11.968,-13.796 -18.439,-6.279 -25.559,-13.795 -25.375,-24.315 0,-16.991 14.238,-29.731 36.328,-29.731 10.352,0 24.357,8.5808 24.357,8.5808 l 0,17.162 c -4.019,-2.218 -15.777,-8.5808 -23.443,-8.5808 -6.758,0 -13.479,4.9994 -13.479,9.6124 0,5.9349 6.3605,6.464 17.313,10.344 16.976,5.908 24.096,14.584 24.277,27.879 0,16.805 -12.954,30.168 -38.701,29.357 -8.835,-0.278 -19.901,-4.8568 -26.656,-8.5458 -1.9e-4,-6.7093 -1.4e-4,-10.452 0.001,-17.162 z"/>
 </g>
 <g style="fill:#219fd1" transform="matrix(0.21419694,0,0,0.23307667,1.2675195,-1.704789)">
  <path d="m 162.15,178.93 c 5.109,3.135 14.876,8.5808 23.094,8.5808 8.396,0 14.252,-4.7723 14.252,-9.3853 0,-4.619 -1.5608,-10.288 -11.968,-13.796 -18.439,-6.279 -25.559,-13.795 -25.375,-24.315 0,-16.991 14.238,-29.731 36.328,-29.731 10.352,0 24.357,8.5808 24.357,8.5808 l 0,17.162 c -4.019,-2.218 -15.777,-8.5808 -23.443,-8.5808 -6.758,0 -13.479,4.9994 -13.479,9.6124 0,5.9349 6.3605,6.464 17.313,10.344 16.976,5.908 24.096,14.584 24.277,27.879 0,16.805 -12.954,30.168 -38.701,29.357 -8.835,-0.278 -19.901,-4.8568 -26.656,-8.5458 -1.9e-4,-6.7093 -1.4e-4,-10.452 0.001,-17.162 z"/>
 </g>
 <path style="opacity:0.1;fill:#f4f4f7" d="M 6.8007812 4 C 5.2496034 4 4 5.2496034 4 6.8007812 L 4 7.8027344 C 4 6.2515566 5.2496034 5.0019531 6.8007812 5.0019531 L 57.199219 5.0019531 C 58.749196 5.0019531 60 6.2515566 60 7.8027344 L 60 6.8007812 C 60 5.2496035 58.749196 4 57.199219 4 L 6.8007812 4 z"/>
</svg>

<svg xmlns="http://www.w3.org/2000/svg" width="64" height="64" version="1"><path style="opacity:.2" d="M4 56.2v2C4 59.75 5.25 61 6.8 61h50.4c1.55 0 2.8-1.25 2.8-2.8v-2c0 1.55-1.25 2.8-2.8 2.8H6.8C5.25 59 4 57.75 4 56.2z"/><rect style="fill:#3b478c" width="56" height="56" x="4" y="4" rx="2.8" ry="2.8"/><path style="opacity:.2" d="M14 19.114s4.202-.115 7.661-.115c4.8 0 10.338 1.6 10.338 10s-5.538 10-10.338 9.972c-1.063.046-1.662.057-1.662.057V47h-6zm6 15.874c.61.062.608.032 1.512.02C24.524 34.974 26 31.684 26 28.802c0-2.588-1.148-5.69-4.04-5.8-1.154-.044-1.96 0-1.96 0z"/><path style="fill:#219fd1" d="M14 18.116S18.202 18 21.661 18C26.461 18 32 19.6 32 28s-5.538 10-10.338 9.97c-1.063.047-1.662.058-1.662.058v7.972h-6zm6 15.874c.61.062.608.032 1.512.02C24.524 33.974 26 30.684 26 27.8c0-2.587-1.148-5.69-4.04-5.8-1.154-.043-1.96 0-1.96 0z"/><path d="M162.15 178.93c5.109 3.135 14.876 8.58 23.094 8.58 8.396 0 14.252-4.771 14.252-9.384 0-4.62-1.56-10.288-11.968-13.796-18.439-6.28-25.559-13.795-25.375-24.315 0-16.991 14.238-29.731 36.328-29.731 10.352 0 24.357 8.58 24.357 8.58v17.162c-4.019-2.218-15.777-8.58-23.443-8.58-6.758 0-13.479 4.999-13.479 9.612 0 5.935 6.36 6.464 17.313 10.344 16.976 5.908 24.096 14.584 24.277 27.879 0 16.805-12.954 30.168-38.701 29.357-8.835-.278-19.901-4.857-26.656-8.546l.001-17.162z" transform="matrix(.2142 0 0 .23308 1.268 -.706)" style="opacity:.2"/><path d="M162.15 178.93c5.109 3.135 14.876 8.58 23.094 8.58 8.396 0 14.252-4.771 14.252-9.384 0-4.62-1.56-10.288-11.968-13.796-18.439-6.28-25.559-13.795-25.375-24.315 0-16.991 14.238-29.731 36.328-29.731 10.352 0 24.357 8.58 24.357 8.58v17.162c-4.019-2.218-15.777-8.58-23.443-8.58-6.758 0-13.479 4.999-13.479 9.612 0 5.935 6.36 6.464 17.313 10.344 16.976 5.908 24.096 14.584 24.277 27.879 0 16.805-12.954 30.168-38.701 29.357-8.835-.278-19.901-4.857-26.656-8.546l.001-17.162z" transform="matrix(.2142 0 0 .23308 1.268 -1.705)" style="fill:#219fd1"/><path style="opacity:.1;fill:#f4f4f7" d="M6.8 4C5.25 4 4 5.25 4 6.8v1.003c0-1.551 1.25-2.801 2.8-2.801h50.4c1.55 0 2.8 1.25 2.8 2.8V6.802C60 5.25 58.75 4 57.2 4H6.8z"/></svg>
